src/renderer/assets/zcoin-logo-text.svg

<svg height="200" viewBox="0 0 633 200" width="633" xmlns="http://www.w3.org/2000/svg" xmlns:xlink="http://www.w3.org/1999/xlink"><linearGradient id="a" x1="100%" x2="0%" y1="0%" y2="100%"><stop offset="0" stop-color="#4aff83"/><stop offset="1" stop-color="#23b852"/></linearGradient><mask id="b" fill="#fff"><path d="m0 0h200.905339v200h-200.905339z" fill="#fff" fill-rule="evenodd"/></mask><mask id="c" fill="#fff"><path d="m528.179824 42.7692009h104.504486v119.3001491h-104.504486z" fill="#fff" fill-rule="evenodd"/></mask><g fill="none" fill-rule="evenodd"><path d="m130.824569 134.882432h37.791759v32.974356h-113.4965894l141.0568874-140.4212549c4.616931-4.5961497 5.997729-11.5088442 3.499448-17.51438513-2.498994-6.00554095-8.385403-9.92114797-14.915471-9.92114797h-168.6157575c-8.91702849 0-16.14427439 7.19542516-16.14427439 16.0716062v49.0459615h-.0007136v69.7648643l70.08030869-69.7648643h-37.7910462v-32.9743554h113.49659l-141.05688737 140.4205437c-4.61693139 4.596861-5.99844285 11.510265-3.49944846 17.515096 2.49899439 6.005541 8.38540351 9.921148 14.91547133 9.921148h168.6157575c8.916315 0 16.144274-7.195425 16.144274-16.071606v-49.045962-69.7648643z" fill="url(#a)" mask="url(#b)"/><g fill="#fff"><path d="m297.39792 42.4242424c19.57104 0 32.234654 7.6103129 38.451621 12.4531097 3.914493 2.5360588 4.144172 6.4565877 1.382339 10.3771166l-2.303186 3.4590389c-2.762544 4.151274-5.986578 4.3813068-10.361139 1.8445359-4.83534-3.4590389-13.815563-8.7626136-26.018398-8.7626136-23.485532 0-40.524418 17.5259393-40.524418 41.5091791 0 23.752494 17.038886 41.969956 40.985198 41.969956 14.045241 0 24.17599-6.456588 29.701789-10.607149 4.144882-2.767516 7.598595-2.306026 10.361139 2.07528l1.842407 3.459039c2.303186 3.919817 1.612017 7.610313-2.072086 10.147084-6.447357 5.303575-20.492599 14.297646-41.445266 14.297646-36.609926 0-62.168255-26.058521-62.168255-61.111111 0-34.5911014 25.788008-61.1111116 62.168255-61.1111116"/><path d="m405.73268 145.275164c22.050985 0 39.967721-17.526041 39.967721-41.970913 0-24.2134131-17.916736-41.5094205-39.967721-41.5094205-21.821856 0-39.96843 17.2960074-39.96843 41.5094205 0 24.444872 18.146574 41.970913 39.96843 41.970913m0-102.8509216c34.68499 0 62.707511 25.5971793 62.707511 60.8800086 0 35.514288-28.022521 61.342214-62.707511 61.342214-34.685699 0-62.479091-25.827926-62.479091-61.342214 0-35.2828293 27.793392-60.8800086 62.479091-60.8800086"/><path d="m483.583732 52.0863114c0-5.094578 2.747854-7.641867 7.556953-7.641867h7.097327c5.037498 0 7.556246 2.547289 7.556246 7.641867v101.8879836c0 5.094578-2.518748 7.641867-7.556246 7.641867h-7.097327c-4.809099 0-7.556953-2.547289-7.556953-7.641867z"/><path d="m528.179824 53.132891c0-5.0669774 2.738331-7.6004662 7.530764-7.6004662h6.388501c5.019335 0 7.529355 2.5334888 7.529355 7.6004662v10.3636902c0 3.4545634-.684231 6.6793915-.684231 6.6793915h.455919c4.564121-10.1339549 18.482681-27.4067718 43.809782-27.4067718 27.15289 0 39.474678 14.9697747 39.474678 44.6795888v67.0200943c0 5.066978-2.51002 7.600466-7.53006 7.600466h-7.073436c-4.791728 0-7.529355-2.533488-7.529355-7.600466v-61.9531169c0-16.3517422-3.194955-29.2489211-21.676932-29.2489211-22.361162 0-38.56143 18.885231-38.56143 43.067175v48.134863c0 5.066978-2.51002 7.600466-7.53006 7.600466h-7.072731c-4.792433 0-7.530764-2.533488-7.530764-7.600466z" mask="url(#c)"/></g></g></svg>

<?xml version="1.0" encoding="UTF-8"?>
<svg width="633px" height="200px" viewBox="0 0 633 200" version="1.1" xmlns="http://www.w3.org/2000/svg" xmlns:xlink="http://www.w3.org/1999/xlink">
    <!-- Generator: Sketch 48.2 (47327) - http://www.bohemiancoding.com/sketch -->
    <title>ZcoinLogo-Full-White</title>
    <desc>Created with Sketch.</desc>
    <defs>
        <polygon id="path-1" points="0 -1.01030295e-14 200.905339 -1.01030295e-14 200.905339 200 0 200"></polygon>
        <linearGradient x1="100%" y1="0%" x2="0%" y2="100%" id="linearGradient-3">
            <stop stop-color="#4AFF83" offset="0%"></stop>
            <stop stop-color="#23B852" offset="100%"></stop>
        </linearGradient>
        <polygon id="path-4" points="528.179824 42.7692009 632.68431 42.7692009 632.68431 162.06935 528.179824 162.06935"></polygon>
    </defs>
    <g id="Symbols" stroke="none" stroke-width="1" fill="none" fill-rule="evenodd">
        <g id="ZcoinLogo-Full-White">
            <g id="Group-3">
                <mask id="mask-2" fill="white">
                    <use xlink:href="#path-1"></use>
                </mask>
                <g id="Clip-2"></g>
                <path d="M130.824569,134.882432 L168.616328,134.882432 L168.616328,167.856788 L55.1197386,167.856788 L196.176626,27.4355331 C200.793557,22.8393834 202.174355,15.9266889 199.676074,9.92114797 C197.17708,3.91560702 191.290671,8.32667268e-16 184.760603,8.32667268e-16 L16.1448455,8.32667268e-16 C7.22781701,8.32667268e-16 0.000571105307,7.19542516 0.000571105307,16.0716062 L0.000571105307,65.1175677 L-0.000142485324,65.1175677 L-0.000142485324,134.882432 L70.0801662,65.1175677 L32.28912,65.1175677 L32.28912,32.1432123 L145.78571,32.1432123 L4.72882263,172.563756 C0.111891244,177.160617 -1.26962022,184.074021 1.22937417,190.078852 C3.72836856,196.084393 9.61477768,200 16.1448455,200 L184.760603,200 C193.676918,200 200.904877,192.804575 200.904877,183.928394 L200.904877,134.882432 L200.904877,65.1175677 L130.824569,134.882432 Z" id="Fill-1" fill="url(#linearGradient-3)" mask="url(#mask-2)"></path>
            </g>
            <path d="M297.39792,42.4242424 C316.96896,42.4242424 329.632574,50.0345553 335.849541,54.8773521 C339.764034,57.4134109 339.993713,61.3339398 337.23188,65.2544687 L334.928694,68.7135076 C332.16615,72.8647816 328.942116,73.0948144 324.567555,70.5580435 C319.732215,67.0990046 310.751992,61.7954299 298.549157,61.7954299 C275.063625,61.7954299 258.024739,79.3213692 258.024739,103.304609 C258.024739,127.057103 275.063625,145.274565 299.009937,145.274565 C313.055178,145.274565 323.185927,138.817977 328.711726,134.667416 C332.856608,131.8999 336.310321,132.36139 339.072865,136.742696 L340.915272,140.201735 C343.218458,144.121552 342.527289,147.812048 338.843186,150.348819 C332.395829,155.652394 318.350587,164.646465 297.39792,164.646465 C260.787994,164.646465 235.229665,138.587944 235.229665,103.535354 C235.229665,68.9442526 261.017673,42.4242424 297.39792,42.4242424" id="Fill-4" fill="#FFFFFF"></path>
            <path d="M405.73268,145.275164 C427.783665,145.275164 445.700401,127.749123 445.700401,103.304251 C445.700401,79.0908379 427.783665,61.7948305 405.73268,61.7948305 C383.910824,61.7948305 365.76425,79.0908379 365.76425,103.304251 C365.76425,127.749123 383.910824,145.275164 405.73268,145.275164 M405.73268,42.4242424 C440.41767,42.4242424 468.440191,68.0214217 468.440191,103.304251 C468.440191,138.818539 440.41767,164.646465 405.73268,164.646465 C371.046981,164.646465 343.253589,138.818539 343.253589,103.304251 C343.253589,68.0214217 371.046981,42.4242424 405.73268,42.4242424" id="Fill-6" fill="#FFFFFF"></path>
            <path d="M483.583732,52.0863114 C483.583732,46.9917334 486.331586,44.4444444 491.140685,44.4444444 L498.238012,44.4444444 C503.27551,44.4444444 505.794258,46.9917334 505.794258,52.0863114 L505.794258,153.974295 C505.794258,159.068873 503.27551,161.616162 498.238012,161.616162 L491.140685,161.616162 C486.331586,161.616162 483.583732,159.068873 483.583732,153.974295 L483.583732,52.0863114 Z" id="Fill-8" fill="#FFFFFF"></path>
            <mask id="mask-5" fill="white">
                <use xlink:href="#path-4"></use>
            </mask>
            <g id="Clip-11"></g>
            <path d="M528.179824,53.132891 C528.179824,48.0659136 530.918155,45.5324248 535.710588,45.5324248 L542.099089,45.5324248 C547.118424,45.5324248 549.628444,48.0659136 549.628444,53.132891 L549.628444,63.4965812 C549.628444,66.9511446 548.944213,70.1759727 548.944213,70.1759727 L549.400132,70.1759727 C553.964253,60.0420178 567.882813,42.7692009 593.209914,42.7692009 C620.362804,42.7692009 632.684592,57.7389756 632.684592,87.4487897 L632.684592,154.468884 C632.684592,159.535862 630.174572,162.06935 625.154532,162.06935 L618.081096,162.06935 C613.289368,162.06935 610.551741,159.535862 610.551741,154.468884 L610.551741,92.5157671 C610.551741,76.1640249 607.356786,63.266846 588.874809,63.266846 C566.513647,63.266846 550.313379,82.152077 550.313379,106.334021 L550.313379,154.468884 C550.313379,159.535862 547.803359,162.06935 542.783319,162.06935 L535.710588,162.06935 C530.918155,162.06935 528.179824,159.535862 528.179824,154.468884 L528.179824,53.132891 Z" id="Fill-10" fill="#FFFFFF" mask="url(#mask-5)"></path>
        </g>
    </g>
</svg>
